svg/printer_pos_off_outline.svg

<svg xmlns="http://www.w3.org/2000/svg" viewBox="0 0 24 24"><path d="M2.39 1.73 1.11 3 7 8.89V10H6a2 2 0 0 0-2 2v7h13.11l3.73 3.73 1.27-1.27zM6 17v-5h4.11l5 5zM9.2 6l-2-2H17v6h1a2 2 0 0 1 2 2v4.8l-2-2V12h-2.8l-2-2H15V6zM7 13h4v2H7z"/></svg>

<svg xmlns="http://www.w3.org/2000/svg" id="mdi-printer-pos-off-outline" viewBox="0 0 24 24"><path d="M2.39 1.73L1.11 3L7 8.89V10H6C4.89 10 4 10.9 4 12V19H17.11L20.84 22.73L22.11 21.46L2.39 1.73M6 17V12H10.11L15.11 17H6M9.2 6L7.2 4H17V10H18C19.11 10 20 10.9 20 12V16.8L18 14.8V12H15.2L13.2 10H15V6H9.2M7 13H11V15H7V13Z" /></svg>
